build/assets/images/bg-s.svg

<svg width="672" height="1156" fill="none" xmlns="http://www.w3.org/2000/svg"><g clip-path="url(#clip0)"><path d="M616.1 0C412.697 0 274.865 100.282 274.865 260.733c0 332.937 505.831 216.61 505.831 425.197 0 72.203-65.571 113.653-175.301 113.653-100.363 0-220.799-48.136-317.148-136.384L220 799.583C316.349 887.831 455.519 948 602.719 948c206.079 0 353.278-102.956 353.278-270.093 1.339-336.948-504.492-227.306-504.492-431.882 0-62.843 60.218-97.608 152.552-97.608 70.923 0 172.625 25.405 274.326 86.912l65.571-139.058C856.972 38.776 737.874 0 616.1 0z" fill="#132631" fill-opacity=".05"/></g><defs><clipPath id="clip0"><path fill="#fff" d="M0 0h672v1156H0z"/></clipPath></defs></svg>

<svg width="672" height="1156" viewBox="0 0 672 1156" fill="none" xmlns="http://www.w3.org/2000/svg">
<g clip-path="url(#clip0)">
<path d="M616.1 0C412.697 0 274.865 100.282 274.865 260.733C274.865 593.67 780.696 477.343 780.696 685.93C780.696 758.133 715.125 799.583 605.395 799.583C505.032 799.583 384.596 751.447 288.247 663.199L220 799.583C316.349 887.831 455.519 948 602.719 948C808.798 948 955.997 845.044 955.997 677.907C957.336 340.959 451.505 450.601 451.505 246.025C451.505 183.182 511.723 148.417 604.057 148.417C674.98 148.417 776.682 173.822 878.383 235.329L943.954 96.2709C856.972 38.7757 737.874 0 616.1 0Z" fill="#132631" fill-opacity="0.05"/>
</g>
<defs>
<clipPath id="clip0">
<rect width="672" height="1156" fill="white"/>
</clipPath>
</defs>
</svg>
